X: 15109
T: Ghoid Iad Mo Bhean Uam An Reir
R: strathspey
M: 4/4
K: Gminor
|:d3/2c/B3/2c/ B/G3/2G2|B3/2G/F3/2G/ FDD2|d3/2c/B3/2c/ B/G3/2G2|F3/2C/ D/F3/2 G4:|
|:G2G3/2F/ G2G2|F3/2D/C3/2D/ B,3/2C/DF|G2G3/2F/ G2G2|F3/2C/ D/F3/2 G4:|

